svgs/regular/rectangle-vertical-history.svg

<svg xmlns="http://www.w3.org/2000/svg" viewBox="0 0 576 512"><!--! Font Awesome Pro 6.3.0 by @fontawesome - https://fontawesome.com License - https://fontawesome.com/license (Commercial License) Copyright 2023 Fonticons, Inc. --><path d="M256 48c-8.8 0-16 7.2-16 16V448c0 8.8 7.2 16 16 16H512c8.8 0 16-7.2 16-16V64c0-8.8-7.2-16-16-16H256zM192 64c0-35.3 28.7-64 64-64H512c35.3 0 64 28.7 64 64V448c0 35.3-28.7 64-64 64H256c-35.3 0-64-28.7-64-64V64zM96 72c0-13.3 10.7-24 24-24s24 10.7 24 24V440c0 13.3-10.7 24-24 24s-24-10.7-24-24V72zM0 120c0-13.3 10.7-24 24-24s24 10.7 24 24V392c0 13.3-10.7 24-24 24s-24-10.7-24-24V120z"/></svg>

<svg xmlns="http://www.w3.org/2000/svg" viewBox="0 0 576 512"><!--! Font Awesome Pro 6.2.0 by @fontawesome - https://fontawesome.com License - https://fontawesome.com/license (Commercial License) Copyright 2022 Fonticons, Inc. --><path d="M192 64C192 28.65 220.7 0 256 0H512C547.3 0 576 28.65 576 64V448C576 483.3 547.3 512 512 512H256C220.7 512 192 483.3 192 448V64zM240 64V448C240 456.8 247.2 464 256 464H512C520.8 464 528 456.8 528 448V64C528 55.16 520.8 48 512 48H256C247.2 48 240 55.16 240 64zM96 72C96 58.75 106.7 48 120 48C133.3 48 144 58.75 144 72V440C144 453.3 133.3 464 120 464C106.7 464 96 453.3 96 440V72zM0 120C0 106.7 10.75 96 24 96C37.25 96 48 106.7 48 120V392C48 405.3 37.25 416 24 416C10.75 416 0 405.3 0 392V120z"/></svg>
